Flat-Remix-Blue/mimetypes/scalable/application-x-trash.svg

<svg xmlns="http://www.w3.org/2000/svg" xmlns:xlink="http://www.w3.org/1999/xlink" width="36pt" height="36pt" version="1.1" viewBox="0 0 36 36"> <defs> <clipPath id="clip1"> <path d="M 20 2 L 31 2 L 31 13 L 20 13 Z M 20 2"/> </clipPath> <clipPath id="clip2"> <path d="M 20.515625 2.625 L 30.328125 12.4375 L 22.023438 12.4375 C 21.292969 12.4375 20.515625 11.660156 20.515625 10.929688 Z M 20.515625 2.625"/> </clipPath> <image id="image6" width="36" height="36" xlink:href="data:image/png;base64,iVBORw0KGgoAAAANSUhEUgAAACQAAAAkCAYAAADhAJiYAAAABmJLR0QA/wD/AP+gvaeTAAAAmklEQVRYhe3T0QqCQBBG4aOtYEoUvf9Lildltl00C4tkbBeTIP+BAUEYP1YW1Pcqh53B9kbgaVPcwQF0tAmGSrMZ6AKcDQXw+AUVHEAtcAUaewYYgYmC3+cBCkAPnDJQMcoDVNnebgEqQnmAclTz4d0I3P4JStc9AjXvk4qLWQV53LLeEOl05gw4A3dgcPiuUkoppZRSSqk99gLWvSJpuDnlsAAAAABJRU5ErkJggg=="/> </defs> <g> <path style="fill:rgb(90.196%,90.196%,90.196%)" d="M 7.347656 3.152344 C 6.675781 3.152344 6.042969 3.785156 6.042969 4.457031 L 6.042969 31.847656 C 6.042969 32.480469 6.714844 33.152344 7.347656 33.152344 L 28.21875 33.152344 C 28.851562 33.152344 29.523438 32.480469 29.523438 31.847656 L 29.523438 11.632812 L 21.042969 3.152344 Z M 7.347656 3.152344"/> <g clip-path="url(#clip1)"> <g clip-path="url(#clip2)"> <use xlink:href="#image6"/> </g> </g> <path style="fill:rgb(100.000%,100.000%,100.000%)" d="M 21.042969 3.152344 L 29.523438 11.632812 L 22.347656 11.632812 C 21.714844 11.632812 21.042969 10.960938 21.042969 10.328125 Z M 21.042969 3.152344"/> <path style="fill:rgb(0%,0%,0%);fill-opacity:0.352941" d="M 17.441406 24.851562 L 17.441406 21.710938 L 14.386719 21.710938 L 14.917969 20.8125 L 15.894531 20.8125 L 14.480469 18.421875 L 11.378906 18.421875 L 12.054688 18.800781 L 11.152344 20.324219 L 13.574219 24.414062 L 13.804688 24.804688 L 13.863281 24.902344 Z M 17.441406 24.851562"/> <path style="fill:rgb(0%,0%,0%);fill-opacity:0.352941" d="M 23.015625 17.496094 L 20.222656 19.066406 L 21.75 21.644531 L 20.6875 21.644531 L 20.199219 20.820312 L 18.78125 23.210938 L 20.332031 25.824219 L 20.332031 25.066406 L 22.136719 25.066406 L 24.558594 20.976562 L 24.789062 20.585938 L 24.847656 20.488281 Z M 23.015625 17.496094"/> <path style="fill:rgb(0%,0%,0%);fill-opacity:0.352941" d="M 13.683594 15.824219 L 16.472656 17.394531 L 18 14.816406 L 18.53125 15.714844 L 18.042969 16.539062 L 20.875 16.539062 L 22.425781 13.925781 L 21.75 14.304688 L 20.847656 12.78125 L 15.425781 12.78125 Z M 13.683594 15.824219"/> </g> </svg>

<svg width="36pt" height="36pt" version="1.1" viewBox="0 0 36 36" xmlns="http://www.w3.org/2000/svg"><defs><filter id="a" x="-.192" y="-.192" width="1.384" height="1.384" color-interpolation-filters="sRGB"><feGaussianBlur stdDeviation="0.67843748"/></filter></defs><path d="m7.3477 3.1523c-0.67188 0-1.3047 0.63281-1.3047 1.3047v27.391c0 0.63281 0.67188 1.3047 1.3047 1.3047h20.871c0.63281 0 1.3047-0.67188 1.3047-1.3047v-20.215l-8.4805-8.4805z" fill="#e5e5e5"/><path d="m20.668 3.5272 8.4805 8.4805h-7.1758c-0.63281 0-1.3047-0.67187-1.3047-1.3047z" filter="url(#a)" opacity=".2"/><path d="m21.043 3.1523 8.4805 8.4805h-7.1758c-0.63281 0-1.3047-0.67187-1.3047-1.3047z" fill="#fff"/><path d="m17.441 24.852v-3.1406h-3.0547l0.53125-0.89844h0.97656l-1.4141-2.3906h-3.1016l0.67578 0.37891-0.90234 1.5234 2.4219 4.0898 0.23047 0.39063 0.058593 0.097656z" fill-opacity=".35294"/><path d="m23.016 17.496-2.793 1.5703 1.5273 2.5781h-1.0625l-0.48828-0.82422-1.418 2.3906 1.5508 2.6133v-0.75781h1.8047l2.4219-4.0898 0.23047-0.39062 0.058594-0.097657z" fill-opacity=".35294"/><path d="m13.684 15.824 2.7891 1.5703 1.5273-2.5781 0.53125 0.89844-0.48828 0.82422h2.832l1.5508-2.6133-0.67578 0.37891-0.90234-1.5234h-5.4219z" fill-opacity=".35294"/></svg>
